src/icons/svg/ChatNew.svg

<!-- Generated by IcoMoon.io -->
<svg version="1.1" xmlns="http://www.w3.org/2000/svg" width="24" height="24" viewBox="0 0 24 24">
<title>chat-new</title>
<path fill="#444" d="M4 4h16v12h-14.83l-1.17 1.17v-13.17zM4 2c-1.1 0-1.99 0.9-1.99 2l-0.010 18 4-4h14c1.1 0 2-0.9 2-2v-12c0-1.1-0.9-2-2-2h-16zM6 12h8v2h-8v-2zM6 9h12v2h-12v-2zM6 6h12v2h-12v-2z"></path>
</svg>

<svg width="24" height="24" viewBox="0 0 24 24" fill="none" xmlns="http://www.w3.org/2000/svg">
<path d="M4 4H20V16H5.17L4 17.17V4V4ZM4 2C2.9 2 2.01 2.9 2.01 4L2 22L6 18H20C21.1 18 22 17.1 22 16V4C22 2.9 21.1 2 20 2H4ZM6 12H14V14H6V12ZM6 9H18V11H6V9ZM6 6H18V8H6V6Z" fill="#1C2125"/>
</svg>
